X: 9286
T: Dance Of The Honeybees, The
R: hornpipe
M: 4/4
K: Dmajor
BAG|:F2 EF DFAF|~G2 FG E3 F|GFGA (3Bcd ed|cege cAGE|
FGEF DFAF|~G2 FG E3 F|GFGA (3Bcd ed|1 cAGE DBAG:|2 cAGE DEFA||
|:dAaA fAdA|GFEF DEFA|BeeA BeeA|(3Bcd ef gece|
dAaA fAdA|GFEF DEFA|(3Bcd ef gfed|1 cAGE DEFA:|2 cAGE DBAG||

